assets/icons/regular/ppt-icon-regular.svg

<svg width="32" height="32" viewBox="0 0 32 32" fill="none" xmlns="http://www.w3.org/2000/svg">
<path fill-rule="evenodd" clip-rule="evenodd" d="M8 2.79365V29.2064C8 30.7492 9.23122 32 10.75 32H29.25C30.7688 32 32 30.7492 32 29.2064V7.35127C32 6.60502 31.7061 5.88979 31.1838 5.36503L26.6478 0.807413C26.133 0.29013 25.4381 0 24.714 0H10.75C9.23122 0 8 1.25076 8 2.79365ZM9.75 29.2064V2.79365C9.75 2.2326 10.1977 1.77778 10.75 1.77778H24.375V7.87302C24.375 8.92499 25.2145 9.77778 26.25 9.77778H30.25V29.2064C30.25 29.7674 29.8023 30.2222 29.25 30.2222H10.75C10.1977 30.2222 9.75 29.7674 9.75 29.2064ZM30.25 8V7.35127C30.25 7.07991 30.1431 6.81982 29.9532 6.629L26.125 2.78254V7.87302C26.125 7.94315 26.181 8 26.25 8H30.25Z" fill="#9D9C9B"/>
<path d="M20 24C24 24 26 22 26 18H22V14H20V18V24Z" fill="#E48762"/>
<path d="M24 16V12C25.5 12 28 14.5 28 16H24Z" fill="#F9D4C4"/>
<path d="M0 9.25C0 8.42157 0.671573 7.75 1.5 7.75H16.5C17.3284 7.75 18 8.42157 18 9.25V24.25C18 25.0784 17.3284 25.75 16.5 25.75H1.5C0.671573 25.75 0 25.0784 0 24.25V9.25Z" fill="#C25B33"/>
<path d="M6 21.5215V11.5H8.66602C9.65951 11.5 10.3089 11.5479 10.6143 11.6436C11.1019 11.7985 11.5029 12.1289 11.8174 12.6348C12.1364 13.1406 12.2959 13.7923 12.2959 14.5898C12.2959 15.3145 12.1592 15.9229 11.8857 16.415C11.6123 16.9027 11.2705 17.2467 10.8604 17.4473C10.4502 17.6432 9.74381 17.7412 8.74121 17.7412H7.6543V21.5215H6ZM7.6543 13.1953V16.0391H8.57031C9.18555 16.0391 9.60254 15.9958 9.82129 15.9092C10.0446 15.8226 10.2269 15.6676 10.3682 15.4443C10.5094 15.2165 10.5801 14.9385 10.5801 14.6104C10.5801 14.2777 10.5072 13.9974 10.3613 13.7695C10.2155 13.5417 10.0355 13.389 9.82129 13.3115C9.6071 13.234 9.15365 13.1953 8.46094 13.1953H7.6543Z" fill="white"/>
</svg>

<svg xmlns="http://www.w3.org/2000/svg" width="32" height="32" fill="none" viewBox="0 0 32 32"><path fill="#9D9C9B" fill-rule="evenodd" d="M8 2.794v26.412C8 30.75 9.231 32 10.75 32h18.5c1.519 0 2.75-1.25 2.75-2.794V7.351c0-.746-.294-1.461-.816-1.986L26.648.807A2.73 2.73 0 0 0 24.714 0H10.75C9.231 0 8 1.25 8 2.794m1.75 26.412V2.794c0-.561.448-1.016 1-1.016h13.625v6.095c0 1.052.84 1.905 1.875 1.905h4v19.428c0 .561-.448 1.016-1 1.016h-18.5c-.552 0-1-.455-1-1.016M30.25 8v-.649c0-.271-.107-.531-.297-.722l-3.828-3.846v5.09c0 .07.056.127.125.127z" clip-rule="evenodd"/><path fill="#E48762" d="M20 24q6 0 6-6h-4v-4h-2v10"/><path fill="#F9D4C4" d="M24 16v-4c1.5 0 4 2.5 4 4z"/><path fill="#C25B33" d="M0 9.25a1.5 1.5 0 0 1 1.5-1.5h15a1.5 1.5 0 0 1 1.5 1.5v15a1.5 1.5 0 0 1-1.5 1.5h-15a1.5 1.5 0 0 1-1.5-1.5z"/><path fill="#fff" d="M6 21.522V11.5h2.666q1.49 0 1.948.144.732.232 1.203.99.48.76.479 1.956 0 1.087-.41 1.825-.41.732-1.026 1.032-.615.294-2.119.294H7.654v3.78zm1.654-8.327v2.844h.916q.924 0 1.251-.13a1.12 1.12 0 0 0 .547-.465q.212-.342.212-.834 0-.499-.219-.84a1.08 1.08 0 0 0-.54-.458q-.32-.117-1.36-.117z"/></svg>
